images/icons/PBS-component_collapse_copy.svg

<?xml version="1.0" encoding="UTF-8" standalone="no"?>
<svg width="256px" height="256px" viewBox="0 0 256 256" version="1.1" xmlns="http://www.w3.org/2000/svg" xmlns:xlink="http://www.w3.org/1999/xlink">
    <!-- Generator: Sketch 39.1 (31720) - http://www.bohemiancoding.com/sketch -->
    <title>PBS-component_collapse_copy</title>
    <desc>Created with Sketch.</desc>
    <defs></defs>
    <g id="Page-1" stroke="none" stroke-width="1" fill="none" fill-rule="evenodd">
        <g id="PBS-component_collapse_copy" fill="#222222">
            <path d="M223.000771,66 C224.104915,66 225,66.8961676 225,67.9948667 L225,191.005133 C225,192.106868 224.113603,193 223.000771,193 L32.9992286,193 C31.8950851,193 31,192.103832 31,191.005133 L31,67.9948667 C31,66.8931323 31.8863971,66 32.9992286,66 L223.000771,66 Z M210,81 L210,178 L46,178 L46,81 L210,81 Z" id="Combined-Shape"></path>
            <rect id="Rectangle-3" x="84" y="120" width="90" height="20" rx="2"></rect>
        </g>
    </g>
</svg>

<svg width="256" height="256" viewBox="0 0 256 256" xmlns="http://www.w3.org/2000/svg"><title>PBS-component_collapse_copy</title><g fill="#222" fill-rule="evenodd"><path d="M223 66c1.105 0 2 .896 2 1.995v123.01a1.992 1.992 0 0 1-2 1.995H33c-1.105 0-2-.896-2-1.995V67.995c0-1.102.886-1.995 2-1.995h190zm-13 15v97H46V81h164z"/><rect x="84" y="120" width="90" height="20" rx="2"/></g></svg>
